symbolic/32x32/apps/exodus.svg

<svg xmlns="http://www.w3.org/2000/svg" width="32" height="32" version="1">
 <rect style="opacity:0.2" width="29" height="29" x="1" y="2" rx="1.45" ry="1.45"/>
 <rect style="fill:#3c4553" width="29" height="29" x="1" y="1" rx="1.45" ry="1.45"/>
 <path style="opacity:0.2" d="m 13.79342,6.0010369 c -0.624042,-0.00851 -0.756701,0.01641 -0.936055,0.1699257 -0.133277,0.114078 -0.242384,0.3411001 -0.282719,0.5903435 -0.01819,0.112398 -0.0277,0.8994757 -0.02783,2.1401798 -1.58e-4,1.5675401 -0.0074,1.9614651 -0.03515,1.9614651 -0.0191,0 -1.019076,-0.9852816 -2.222213,-2.1899857 C 9.0863106,7.4682612 8.0492228,6.4470078 7.9852015,6.4024119 7.8109551,6.281043 7.5002621,6.1404595 7.2542295,6.0728156 7.0517029,6.0171345 6.9619433,6.0124469 6.0442445,6.0025017 5.4989408,5.9965916 5.0525251,6.0017705 5.0525251,6.0142244 c 1.6e-6,0.01245 2.0829784,2.1050746 4.6290001,4.6509726 2.3647308,2.364618 4.0403708,4.031504 4.3184418,4.299399 V 6.0039665 Z m 3.413154,0 -0.206547,0.00293 v 8.9606291 c 0.278071,-0.267895 1.95371,-1.934782 4.318446,-4.299403 2.54602,-2.5458973 4.628998,-4.6385209 4.628999,-4.6509719 0,-0.01245 -0.446416,-0.017626 -0.991719,-0.011723 -0.917699,0.00994 -1.007459,0.014633 -1.209986,0.070314 -0.246032,0.067644 -0.556725,0.2082273 -0.730971,0.3295963 -0.06403,0.044595 -1.101109,1.0658494 -2.304245,2.2705535 -1.203137,1.2047041 -2.203118,2.1899851 -2.222213,2.1899851 -0.02773,0 -0.03501,-0.393925 -0.03515,-1.9614646 -1.37e-4,-1.2407041 -0.0096,-2.0277818 -0.02783,-2.1401798 C 18.385016,6.5120588 18.27591,6.2850368 18.142631,6.1709588 17.963278,6.017445 17.830619,5.9925216 17.206577,6.0010332 Z M 5.0290841,9.8243554 c -0.02985,0 -0.03379,0.1688652 -0.024901,0.9360536 0.010485,0.904811 0.012247,0.945832 0.080568,1.196801 0.086119,0.316365 0.2012703,0.575081 0.3691484,0.832048 0.093356,0.1429 0.587852,0.655917 1.8794319,1.951211 L 9.0853199,16.498317 7.3333314,18.2547 c -1.2915799,1.295295 -1.7860761,1.808311 -1.8794319,1.951211 -0.1678781,0.256968 -0.2830294,0.515684 -0.3691484,0.832048 -0.068319,0.250969 -0.070081,0.291991 -0.080568,1.196801 -0.00889,0.767189 -0.00492,0.936054 0.024901,0.936054 0.050558,0 6.6695679,-6.621908 6.6695679,-6.672497 0,-0.05059 -6.6190086,-6.6739616 -6.6695679,-6.6739616 z m 20.9418259,0 c -0.05056,0 -6.669568,6.6233746 -6.669568,6.6739616 0,0.05059 6.619013,6.672497 6.669568,6.672497 0.02982,0 0.03379,-0.168865 0.0249,-0.936054 -0.01048,-0.90481 -0.01225,-0.945832 -0.08057,-1.196801 -0.08612,-0.316364 -0.20127,-0.57508 -0.369148,-0.832048 -0.09335,-0.1429 -0.587852,-0.655916 -1.879432,-1.951211 l -1.751988,-1.756383 1.751988,-1.757848 c 1.29158,-1.295294 1.786077,-1.808311 1.879432,-1.951211 0.167878,-0.256967 0.283029,-0.515683 0.369148,-0.832048 0.06832,-0.250969 0.07008,-0.29199 0.08057,-1.196801 0.0089,-0.7671884 0.005,-0.9360536 -0.0249,-0.9360536 z M 13.999967,18.03204 c -0.639079,0.613932 -8.9474441,8.92172 -8.9474449,8.948909 8e-7,0.01243 0.4464157,0.01911 0.9917193,0.01318 0.9176989,-0.0099 1.0074585,-0.0161 1.2099851,-0.07177 0.2460326,-0.06765 0.5567256,-0.206762 0.730972,-0.328132 0.064021,-0.0446 1.1011091,-1.067314 2.3042445,-2.272018 1.203137,-1.204704 2.203118,-2.189985 2.222213,-2.189985 0.02773,0 0.035,0.393926 0.03515,1.961465 1.35e-4,1.240704 0.0096,2.027781 0.02784,2.14018 0.06236,0.385356 0.250163,0.642362 0.528819,0.725111 C 13.203335,26.98864 13.382816,27 13.77731,27 c 0.118564,0 0.131399,-0.0053 0.22266,-0.0073 z m 3.00006,0 v 8.960628 c 0.09126,0.0021 0.104096,0.0073 0.22266,0.0073 0.394494,0 0.573972,-0.01136 0.673842,-0.04102 0.278656,-0.08275 0.466461,-0.339755 0.528819,-0.725111 0.01819,-0.112399 0.0277,-0.899476 0.02783,-2.14018 1.65e-4,-1.56754 0.0074,-1.961464 0.03515,-1.961464 0.0191,0 1.019076,0.985279 2.222213,2.189985 1.203135,1.204703 2.240225,2.227424 2.304244,2.272017 0.174247,0.121369 0.484939,0.260489 0.730972,0.328132 0.202527,0.05568 0.292287,0.06183 1.209985,0.07177 0.545304,0.0059 0.991719,-7.5e-4 0.99172,-0.01319 0,-0.02719 -8.308366,-8.334976 -8.947445,-8.948909 z"/>
 <path style="fill:#12a1ff" d="m 13.79342,5.0010369 c -0.624042,-0.00851 -0.756701,0.01641 -0.936055,0.1699257 -0.133277,0.114078 -0.242384,0.3411001 -0.282719,0.5903435 -0.01819,0.112398 -0.0277,0.8994757 -0.02783,2.1401798 -1.58e-4,1.5675397 -0.0074,1.9614649 -0.03515,1.9614649 -0.0191,0 -1.019076,-0.9852814 -2.222213,-2.1899855 C 9.0863106,6.4682612 8.0492228,5.4470078 7.9852015,5.4024119 7.8109551,5.281043 7.5002621,5.1404595 7.2542295,5.0728156 7.0517029,5.0171345 6.9619433,5.0124469 6.0442445,5.0025017 5.4989408,4.9965916 5.0525251,5.0017705 5.0525251,5.0142244 c 1.6e-6,0.01245 2.0829784,2.1050746 4.6290001,4.6509721 2.3647308,2.3646185 4.0403708,4.0315045 4.3184418,4.2993995 V 5.0039665 Z m 3.413154,0 -0.206547,0.00293 v 8.9606291 c 0.278071,-0.267895 1.95371,-1.934782 4.318446,-4.2994028 2.54602,-2.5458975 4.628998,-4.6385211 4.628999,-4.6509721 0,-0.01245 -0.446416,-0.017626 -0.991719,-0.011723 -0.917699,0.00994 -1.007459,0.014633 -1.209986,0.070314 -0.246032,0.067644 -0.556725,0.2082273 -0.730971,0.3295963 -0.06403,0.044595 -1.101109,1.0658494 -2.304245,2.2705535 -1.203137,1.2047041 -2.203118,2.1899849 -2.222213,2.1899849 -0.02773,0 -0.03501,-0.3939247 -0.03515,-1.9614644 -1.37e-4,-1.2407041 -0.0096,-2.0277818 -0.02783,-2.1401798 C 18.385016,5.5120588 18.27591,5.2850368 18.142631,5.1709588 17.963278,5.017445 17.830619,4.9925216 17.206577,5.0010332 Z M 5.0290841,8.8243554 c -0.02985,0 -0.03379,0.1688652 -0.024901,0.936054 0.010485,0.9048106 0.012247,0.9458316 0.080568,1.1968006 0.086119,0.316365 0.2012703,0.575081 0.3691484,0.832048 0.093356,0.1429 0.587852,0.655917 1.8794319,1.951211 L 9.0853199,15.498317 7.3333314,17.2547 c -1.2915799,1.295295 -1.7860761,1.808311 -1.8794319,1.951211 -0.1678781,0.256968 -0.2830294,0.515684 -0.3691484,0.832048 -0.068319,0.250969 -0.070081,0.291991 -0.080568,1.196801 -0.00889,0.767189 -0.00492,0.936054 0.024901,0.936054 0.050558,0 6.6695679,-6.621908 6.6695679,-6.672497 0,-0.05059 -6.6190086,-6.6739616 -6.6695679,-6.6739616 z m 20.9418259,0 c -0.05056,0 -6.669568,6.6233746 -6.669568,6.6739616 0,0.05059 6.619013,6.672497 6.669568,6.672497 0.02982,0 0.03379,-0.168865 0.0249,-0.936054 -0.01048,-0.90481 -0.01225,-0.945832 -0.08057,-1.196801 -0.08612,-0.316364 -0.20127,-0.57508 -0.369148,-0.832048 -0.09335,-0.1429 -0.587852,-0.655916 -1.879432,-1.951211 l -1.751988,-1.756383 1.751988,-1.757848 c 1.29158,-1.295294 1.786077,-1.808311 1.879432,-1.951211 0.167878,-0.256967 0.283029,-0.515683 0.369148,-0.832048 0.06832,-0.250969 0.07008,-0.29199 0.08057,-1.1968006 0.0089,-0.7671888 0.005,-0.936054 -0.0249,-0.936054 z M 13.999967,17.03204 c -0.639079,0.613932 -8.9474441,8.92172 -8.9474449,8.948909 8e-7,0.01243 0.4464157,0.01911 0.9917193,0.01318 0.9176989,-0.0099 1.0074585,-0.0161 1.2099851,-0.07177 0.2460326,-0.06765 0.5567256,-0.206762 0.730972,-0.328132 0.064021,-0.0446 1.1011091,-1.067314 2.3042445,-2.272018 1.203137,-1.204704 2.203118,-2.189985 2.222213,-2.189985 0.02773,0 0.035,0.393926 0.03515,1.961465 1.35e-4,1.240704 0.0096,2.027781 0.02784,2.14018 0.06236,0.385356 0.250163,0.642362 0.528819,0.725111 C 13.203335,25.98864 13.382816,26 13.77731,26 c 0.118564,0 0.131399,-0.0053 0.22266,-0.0073 z m 3.00006,0 v 8.960628 c 0.09126,0.0021 0.104096,0.0073 0.22266,0.0073 0.394494,0 0.573972,-0.01136 0.673842,-0.04102 0.278656,-0.08275 0.466461,-0.339755 0.528819,-0.725111 0.01819,-0.112399 0.0277,-0.899476 0.02783,-2.14018 1.65e-4,-1.56754 0.0074,-1.961464 0.03515,-1.961464 0.0191,0 1.019076,0.985279 2.222213,2.189985 1.203135,1.204703 2.240225,2.227424 2.304244,2.272017 0.174247,0.121369 0.484939,0.260489 0.730972,0.328132 0.202527,0.05568 0.292287,0.06183 1.209985,0.07177 0.545304,0.0059 0.991719,-7.5e-4 0.99172,-0.01319 0,-0.02719 -8.308366,-8.334976 -8.947445,-8.948909 z"/>
 <path style="fill:#ffffff;opacity:0.1" d="M 2.4492188 1 C 1.6459187 1 1 1.6459187 1 2.4492188 L 1 3.4492188 C 1 2.6459187 1.6459187 2 2.4492188 2 L 28.550781 2 C 29.354081 2 30 2.6459187 30 3.4492188 L 30 2.4492188 C 30 1.6459187 29.354081 1 28.550781 1 L 2.4492188 1 z"/>
 <path style="fill:#ffffff;opacity:0.2" d="M 6.0449219 5.0019531 C 5.4996182 4.996043 5.0527344 5.001218 5.0527344 5.0136719 C 5.0527347 5.016318 5.8644699 5.8269878 6.0371094 6.0019531 C 6.0413901 6.0019983 6.0406287 6.0019066 6.0449219 6.0019531 C 6.9626207 6.0118983 7.0513797 6.0165845 7.2539062 6.0722656 C 7.4999389 6.1399095 7.8101286 6.2809749 7.984375 6.4023438 C 8.0483963 6.4469397 9.0859201 7.469124 10.289062 8.6738281 C 11.492199 9.8785322 12.492619 10.863281 12.511719 10.863281 C 12.539469 10.863281 12.546717 10.469884 12.546875 8.9023438 C 12.547005 7.6616397 12.556029 6.8741167 12.574219 6.7617188 C 12.614554 6.5124754 12.724145 6.285953 12.857422 6.171875 C 13.036776 6.0183593 13.168927 5.9934431 13.792969 6.0019531 L 14 6.0039062 L 14 5.0039062 L 13.792969 5.0019531 C 13.168927 4.9934431 13.036776 5.0183593 12.857422 5.171875 C 12.724145 5.285953 12.614554 5.5124753 12.574219 5.7617188 C 12.556029 5.8741167 12.547005 6.6616397 12.546875 7.9023438 C 12.546717 9.4698834 12.539469 9.8632812 12.511719 9.8632812 C 12.492619 9.8632812 11.492199 8.8785322 10.289062 7.6738281 C 9.0859201 6.469124 8.0483963 5.4469397 7.984375 5.4023438 C 7.8101286 5.2809749 7.4999389 5.1399095 7.2539062 5.0722656 C 7.0513797 5.0165845 6.9626207 5.0118983 6.0449219 5.0019531 z M 17.207031 5.0019531 L 17 5.0039062 L 17 6.0039062 L 17.207031 6.0019531 C 17.831073 5.9934415 17.963225 6.0183612 18.142578 6.171875 C 18.275857 6.285953 18.385439 6.5124749 18.425781 6.7617188 C 18.444011 6.8741168 18.452988 7.6616396 18.453125 8.9023438 C 18.453265 10.469883 18.460551 10.863281 18.488281 10.863281 C 18.507376 10.863281 19.507801 9.8785322 20.710938 8.6738281 C 21.914074 7.469124 22.951595 6.4469388 23.015625 6.4023438 C 23.189871 6.2809747 23.500062 6.1399096 23.746094 6.0722656 C 23.948621 6.0165846 24.037379 6.0118931 24.955078 6.0019531 C 24.959371 6.0019067 24.95861 6.0019982 24.962891 6.0019531 C 25.13553 5.8269877 25.947265 5.0163182 25.947266 5.0136719 C 25.947266 5.0012219 25.500381 4.9960501 24.955078 5.0019531 C 24.037379 5.0118931 23.948621 5.0165846 23.746094 5.0722656 C 23.500062 5.1399096 23.189871 5.2809747 23.015625 5.4023438 C 22.951595 5.4469388 21.914074 6.469124 20.710938 7.6738281 C 19.507801 8.8785322 18.507376 9.8632812 18.488281 9.8632812 C 18.460551 9.8632812 18.453265 9.4698834 18.453125 7.9023438 C 18.452988 6.6616396 18.444011 5.8741168 18.425781 5.7617188 C 18.385439 5.5124749 18.275857 5.285953 18.142578 5.171875 C 17.963225 5.0183612 17.831073 4.9934415 17.207031 5.0019531 z M 5.0292969 8.8242188 C 4.9994469 8.8242188 4.9950173 8.9925768 5.0039062 9.7597656 C 5.0072555 10.048793 5.0116021 10.151082 5.015625 10.298828 C 5.0191393 10.155824 5.0141531 9.8242188 5.0292969 9.8242188 C 5.0760894 9.8242188 10.360038 15.112606 11.205078 15.998047 C 11.273104 15.926784 11.699219 15.501816 11.699219 15.498047 C 11.699219 15.447457 5.0798562 8.8242188 5.0292969 8.8242188 z M 25.970703 8.8242188 C 25.920143 8.8242188 19.300781 15.44746 19.300781 15.498047 C 19.300781 15.501816 19.726896 15.926784 19.794922 15.998047 C 20.639961 15.112608 25.92391 9.8242188 25.970703 9.8242188 C 25.985872 9.8242188 25.980866 10.155824 25.984375 10.298828 C 25.988398 10.151082 25.992743 10.048793 25.996094 9.7597656 C 26.004994 8.9925768 26.000603 8.8242188 25.970703 8.8242188 z M 8.5878906 15.998047 L 7.3339844 17.253906 C 6.0424045 18.549201 5.5464808 19.062178 5.453125 19.205078 C 5.2852469 19.462046 5.1701034 19.720745 5.0839844 20.037109 C 5.0156654 20.288078 5.0143933 20.329565 5.0039062 21.234375 C 4.9995264 21.612346 5.0122085 21.556441 5.015625 21.695312 C 5.0241964 21.380534 5.0374888 21.20791 5.0839844 21.037109 C 5.1701034 20.720745 5.2852469 20.462046 5.453125 20.205078 C 5.5464808 20.062178 6.0424045 19.549201 7.3339844 18.253906 L 9.0859375 16.498047 L 8.5878906 15.998047 z M 22.412109 15.998047 L 21.914062 16.498047 L 23.666016 18.253906 C 24.957596 19.549201 25.453525 20.062178 25.546875 20.205078 C 25.714753 20.462046 25.829896 20.720745 25.916016 21.037109 C 25.962512 21.20791 25.975803 21.380534 25.984375 21.695312 C 25.987791 21.556441 26.000474 21.612346 25.996094 21.234375 C 25.985614 20.329565 25.984336 20.288078 25.916016 20.037109 C 25.829896 19.720745 25.714753 19.462046 25.546875 19.205078 C 25.453525 19.062178 24.957596 18.549201 23.666016 17.253906 L 22.412109 15.998047 z M 14 17.03125 C 13.360921 17.645182 5.0527352 25.95328 5.0527344 25.980469 C 5.0527352 25.992825 5.4981515 25.999888 6.0390625 25.994141 C 7.4960412 24.518382 13.431364 18.577511 14 18.03125 L 14 17.03125 z M 17 17.03125 L 17 18.03125 C 17.568636 18.577512 23.503959 24.518382 24.960938 25.994141 C 25.501849 25.999859 25.947265 25.992835 25.947266 25.980469 C 25.947266 25.953279 17.639079 17.645183 17 17.03125 z"/>
</svg>

<svg xmlns="http://www.w3.org/2000/svg" width="32" height="32" version="1"><rect style="opacity:.2" width="29" height="29" x="1" y="2" rx="1.45" ry="1.45"/><rect style="fill:#3c4553" width="29" height="29" x="1" y="1" rx="1.45" ry="1.45"/><path style="opacity:.2" d="M13.793 6.001c-.624-.008-.756.016-.936.17-.133.114-.242.341-.282.59-.019.113-.028.9-.028 2.14 0 1.568-.008 1.962-.035 1.962-.02 0-1.02-.985-2.223-2.19-1.203-1.205-2.24-2.226-2.304-2.27a2.741 2.741 0 0 0-.73-.33c-.203-.056-.293-.06-1.21-.07-.546-.006-.992-.001-.992.011 0 .013 2.083 2.105 4.629 4.651a786.488 786.488 0 0 0 4.318 4.3V6.004zm3.414 0L17 6.004v8.96c.278-.267 1.954-1.934 4.318-4.299 2.546-2.546 4.63-4.638 4.63-4.65 0-.013-.447-.018-.992-.013-.918.01-1.008.015-1.21.07a2.741 2.741 0 0 0-.731.33c-.064.045-1.101 1.066-2.304 2.271-1.204 1.205-2.204 2.19-2.223 2.19-.027 0-.035-.394-.035-1.962 0-1.24-.01-2.027-.028-2.14-.04-.249-.15-.476-.282-.59-.18-.154-.312-.178-.936-.17zM5.029 9.824c-.03 0-.034.17-.025.936.01.905.012.946.08 1.197.087.317.202.575.37.832.093.143.588.656 1.88 1.951l1.751 1.758-1.752 1.757c-1.291 1.295-1.786 1.808-1.88 1.95a2.813 2.813 0 0 0-.368.833c-.069.25-.07.292-.08 1.197-.01.767-.006.936.024.936.05 0 6.67-6.622 6.67-6.673 0-.05-6.62-6.674-6.67-6.674zm20.942 0c-.05 0-6.67 6.624-6.67 6.674 0 .05 6.62 6.673 6.67 6.673.03 0 .034-.17.025-.936-.01-.905-.012-.946-.08-1.197a2.813 2.813 0 0 0-.37-.832c-.093-.143-.588-.656-1.88-1.951l-1.751-1.757 1.752-1.758c1.291-1.295 1.786-1.808 1.88-1.95.167-.258.282-.516.368-.833.069-.25.07-.292.08-1.197.01-.767.006-.936-.024-.936zM14 18.032c-.64.614-8.947 8.922-8.947 8.949 0 .012.446.02.991.013.918-.01 1.008-.016 1.21-.072a2.74 2.74 0 0 0 .731-.328c.064-.044 1.101-1.067 2.304-2.272 1.204-1.204 2.204-2.19 2.223-2.19.027 0 .035.394.035 1.962 0 1.24.01 2.027.028 2.14.062.385.25.642.528.725.1.03.28.041.674.041.119 0 .132-.005.223-.007zm3 0v8.96c.091.003.104.008.223.008.394 0 .574-.011.674-.041.278-.083.466-.34.528-.725.019-.113.028-.9.028-2.14 0-1.568.008-1.962.035-1.962.02 0 1.02.985 2.223 2.19 1.203 1.205 2.24 2.228 2.304 2.272.174.122.485.26.73.328.203.056.293.062 1.21.072.546.006.992 0 .992-.013 0-.027-8.308-8.335-8.947-8.949z"/><path style="fill:#12a1ff" d="M13.793 5.001c-.624-.008-.756.016-.936.17-.133.114-.242.341-.282.59-.019.113-.028.9-.028 2.14 0 1.568-.008 1.962-.035 1.962-.02 0-1.02-.985-2.223-2.19-1.203-1.205-2.24-2.226-2.304-2.27a2.741 2.741 0 0 0-.73-.33c-.203-.056-.293-.06-1.21-.07-.546-.006-.992-.001-.992.011 0 .013 2.083 2.105 4.629 4.651a786.477 786.477 0 0 0 4.318 4.3V5.004zm3.414 0L17 5.004v8.96c.278-.267 1.954-1.934 4.318-4.299 2.546-2.546 4.63-4.638 4.63-4.65 0-.013-.447-.018-.992-.013-.918.01-1.008.015-1.21.07a2.741 2.741 0 0 0-.731.33c-.064.045-1.101 1.066-2.304 2.271-1.204 1.205-2.204 2.19-2.223 2.19-.027 0-.035-.394-.035-1.962 0-1.24-.01-2.027-.028-2.14-.04-.249-.15-.476-.282-.59-.18-.154-.312-.178-.936-.17zM5.029 8.824c-.03 0-.034.17-.025.936.01.905.012.946.08 1.197.087.317.202.575.37.832.093.143.588.656 1.88 1.951l1.751 1.758-1.752 1.757c-1.291 1.295-1.786 1.808-1.88 1.95a2.813 2.813 0 0 0-.368.833c-.069.25-.07.292-.08 1.197-.01.767-.006.936.024.936.05 0 6.67-6.622 6.67-6.673 0-.05-6.62-6.674-6.67-6.674zm20.942 0c-.05 0-6.67 6.624-6.67 6.674 0 .05 6.62 6.673 6.67 6.673.03 0 .034-.17.025-.936-.01-.905-.012-.946-.08-1.197a2.813 2.813 0 0 0-.37-.832c-.093-.143-.588-.656-1.88-1.951l-1.751-1.757 1.752-1.758c1.291-1.295 1.786-1.808 1.88-1.95.167-.258.282-.516.368-.833.069-.25.07-.292.08-1.197.01-.767.006-.936-.024-.936zM14 17.032c-.64.614-8.947 8.922-8.947 8.949 0 .012.446.02.991.013.918-.01 1.008-.016 1.21-.072a2.74 2.74 0 0 0 .731-.328c.064-.044 1.101-1.067 2.304-2.272 1.204-1.204 2.204-2.19 2.223-2.19.027 0 .035.394.035 1.962 0 1.24.01 2.027.028 2.14.062.385.25.642.528.725.1.03.28.041.674.041.119 0 .132-.005.223-.007zm3 0v8.96c.091.003.104.008.223.008.394 0 .574-.011.674-.041.278-.083.466-.34.528-.725.019-.113.028-.9.028-2.14 0-1.568.008-1.962.035-1.962.02 0 1.02.985 2.223 2.19 1.203 1.205 2.24 2.228 2.304 2.272.174.122.485.26.73.328.203.056.293.062 1.21.072.546.006.992 0 .992-.013 0-.027-8.308-8.335-8.947-8.949z"/><path style="fill:#fff;opacity:.1" d="M2.45 1C1.645 1 1 1.646 1 2.45v1C1 2.645 1.646 2 2.45 2h26.1c.804 0 1.45.646 1.45 1.45v-1C30 1.645 29.354 1 28.55 1H2.45z"/><path style="fill:#fff;opacity:.2" d="M6.045 5.002c-.545-.006-.992 0-.992.012 0 .002.811.813.984.988h.008c.918.01 1.006.015 1.209.07.246.068.556.209.73.33.064.045 1.102 1.067 2.305 2.272 1.203 1.205 2.204 2.19 2.223 2.19.027 0 .035-.394.035-1.962 0-1.24.009-2.028.027-2.14.04-.25.15-.476.283-.59.18-.154.312-.179.936-.17l.207.002v-1l-.207-.002c-.624-.009-.756.016-.936.17-.133.114-.242.34-.283.59-.018.112-.027.9-.027 2.14 0 1.568-.008 1.961-.035 1.961-.02 0-1.02-.984-2.223-2.19-1.203-1.204-2.24-2.226-2.305-2.27a2.738 2.738 0 0 0-.73-.33c-.203-.056-.291-.061-1.21-.071zm11.162 0L17 5.004v1l.207-.002c.624-.009.756.016.936.17.133.114.242.34.283.59.018.112.027.9.027 2.14 0 1.568.008 1.961.035 1.961.02 0 1.02-.984 2.223-2.19 1.203-1.204 2.24-2.226 2.305-2.27.174-.122.484-.263.73-.33.203-.056.291-.061 1.21-.071h.007c.173-.175.984-.986.984-.988 0-.013-.447-.018-.992-.012-.918.01-1.006.015-1.209.07a2.738 2.738 0 0 0-.73.33c-.064.045-1.102 1.067-2.305 2.272-1.203 1.205-2.204 2.19-2.223 2.19-.027 0-.035-.394-.035-1.962 0-1.24-.009-2.028-.027-2.14-.04-.25-.15-.476-.283-.59-.18-.154-.312-.179-.936-.17zM5.029 8.824c-.03 0-.034.169-.025.936.003.289.008.391.012.539.003-.143-.002-.475.013-.475.047 0 5.331 5.289 6.176 6.174.068-.071.494-.496.494-.5 0-.05-6.62-6.674-6.67-6.674zm20.942 0c-.05 0-6.67 6.623-6.67 6.674 0 .004.426.429.494.5.845-.885 6.129-6.174 6.176-6.174.015 0 .01.332.013.475.004-.148.009-.25.012-.54.009-.766.005-.935-.025-.935zM8.588 15.998l-1.254 1.256c-1.292 1.295-1.788 1.808-1.88 1.951a2.812 2.812 0 0 0-.37.832c-.068.251-.07.293-.08 1.197-.004.378.008.322.012.461.008-.314.021-.487.068-.658.086-.316.201-.575.37-.832.092-.143.588-.656 1.88-1.951l1.752-1.756-.498-.5zm13.824 0-.498.5 1.752 1.756c1.292 1.295 1.788 1.808 1.88 1.951.169.257.284.516.37.832.047.17.06.344.068.658.004-.139.016-.083.012-.46-.01-.905-.012-.947-.08-1.198a2.812 2.812 0 0 0-.37-.832c-.092-.143-.588-.656-1.88-1.951l-1.254-1.256zM14 17.031c-.64.614-8.947 8.922-8.947 8.95 0 .012.445.019.986.013 1.457-1.476 7.392-7.416 7.961-7.963v-1zm3 0v1c.569.547 6.504 6.487 7.96 7.963.542.006.987-.001.987-.014 0-.027-8.308-8.335-8.947-8.949z"/></svg>
